X:1
T:English Suite IV Prelude
T:BWV 809
T:J. S. Bach
%%score { ( 1 3 5 ) | ( 2 4 ) }
L:1/8
M:4/4
K:F
V:1 treble nm="Harp"
V:3 treble 
V:5 treble 
V:2 bass 
V:4 bass 
V:1
 z/ C/D/E/ F/G/A/F/ B/c/B/A/ G/c/B/c/ | AF f/4e/4ff/ f>g f/4e/4f/4e/4f/4e/4f/ | %2
 f/g/f/e/ d/e/f/a/ =B/c/d/g/ c/d/e/g/ | A/=B/c/f/ B/c/d/f/ G/A/B/e/ A/B/c/e/ | %4
 FA d>d d/G/A/=B/ c/d/e/c/ | f/g/f/e/ d/g/f/g/ ec c'>c' | %6
 c'-c'/4=b/4c'/4a/4 c'/4b/4c'/4b/4c'/4b/4b/ be a>a | a3/2g/4f/4 g>g gc f/4e/4ff/ | %8
 f/a/g/f/ e/f/g/e/ f/g/f/e/ d/g/f/g/ | e/c/d/e/ f/g/a/f/ b/c'/b/a/ g/c'/b/c'/ | %10
 a/b/a/g/ f/e/d/c/ =B/G/A/B/ c/d/e/f/ | g/a/4g/4f/4g/4a/ e/4d/4e/4d/4e/4d/4c/ c/G/A/=B/ c/d/e/c/ | %12
 f/g/f/e/ d/g/f/g/ ec f/4e/4ff/ | f>g _e>e e/F/G/A/ B/c/d/B/ | _e/f/e/d/ c/f/e/f/ dB [gb]>[gb] | %15
 [gb]>[gc'] [fa]>[fa] [fa]d g>g | g>a f>f f>g f/4e/4f/4e/4f/4e/4f/ | %17
 fD/E/ F/G/A/F/ B/c/B/A/ G/c/B/c/ | AC F>F F2 E>E | F2 z/ f/e/f/ c/f/d/f/ c/f/B/f/ | %20
 A/f/B/f/ A/f/G/f/ F/f/G/f/ A/f/=B/f/ | e/G/A/=B/ c/d/e/4d/4c/4d/4 efed | z agf efga | %23
 d/G/=B/d/ B/G/B/d/ ffff | ffff eeee | eeee dddd | dcc=B c/G,/A,/=B,/ C/D/E/C/ | %27
 F/G/F/E/ D/G/F/G/ ECcc | c=B/c/ dd dc/d/ ee | ed/e/ ff fe/f/ gg | g/=b/a/g/ ^f/g/e/f/ gd g>g | %31
 g>a f>f f3/2e/4d/4 e>e | e/g/f/e/ d/c/=B/A/ BG c>c | c>d =B>c c2 z/ c/B/c/ | %34
 G/c/A/c/ G/c/F/c/ E/c/F/c/ E/c/D/c/ | C/c/D/c/ E/c/^F/c/ B/D/E/F/ G/A/B/4A/4G/4A/4 | BcBA z _edc | %37
 Bcde AA d>d | d>e d/4^c/4d/4c/4d/4c/4d/ d/A/=B/c/ d/e/f/d/ | g/a/g/f/ e/a/g/a/ f/g/f/e/ d/f/g/a/ | %40
 b/c'/b/a/ g/c'/b/c'/ a/b/a/g/ f/e/d/^c/ | d4- d/d/c/=B/ c/B/c/A/ | B2- B>B A2- A>A | %43
 A/c/B/A/ G/F/E/D/ ^CA, A>E | F>G E>D D/E/F/A/ F/G/A/d/ | G/A/=B/d/ B/c/d/g/ C/D/E/G/ E/F/G/c/ | %46
 F/G/A/c/ A/B/c/f/ =B,/C/D/F/ D/E/F/=B/ | E/^F/^G/=B/ G/A/B/e/ A/B/c/e/ =G/A/_B/e/ | %48
 ^F/G/A/e/ =F/G/A/d/ E/^F/^G/d/ E/G/A/c/ | ^D/E/^F/c/ =D/E/=F/=B/ ^C/D/E/B/ =C/D/E/A/ | %50
 =B,/C/D/A/ B,/C/D/^G/ A2 z2 | z4 z/ f/e/d/ c/=B/A/c/ | F/e/d/c/ =B/A/^G/B/ E/d/c/B/ A/=G/F/A/ | %53
 z ^G/A/ =BB BA/B/ cc | c=B/c/ dd dc/B/ c/4B/4c/4B/4c/4B/4A/ | A/A/c/e/ c/A/c/e/ aaaa | aaaa gggg | %57
 gggg gfff | f/G/B/d/ B/G/B/d/ edd^c | d/A,/=B,/^C/ D/E/F/D/ G/A/G/F/ E/A/G/A/ | %60
 ^F/D/E/F/ G/A/B/G/ c/E/F/G/ A/B/c/A/ | d/^F/G/A/ B/c/d/B/ _e/d/c/B/ A/d/c/d/ | B3 A- A G2 ^F | %63
 G/F/_E/D/ E2 G,/_E/D/C/ B,/G/A,/^F/ | z2 z g ga/g/ ff | fg/f/ _ee ef/e/ dd | d_e/d/ cc cF BB | %67
 BA/B/ cc cB/c/ dd | dc/d/ _ee ed/c/ c>B | B/A/B/c/ d/_e/f/b/ c/d/e/g/ A/B/c/a/ | %70
 B/c/d/f/ G/A/B/g/ A/B/c/_e/ F/G/A/f/ | G/A/B/d/ _E/F/G/_e/ F/G/A/c/ D/E/F/d/ | %72
 _E/d/D/d/ E/c/C/c/ D/c/E/c/ F/B/D/B/ | G/B/F/B/ _E/B/G/B/ F/B/E/B/ D/B/C/B/ | %74
 B,/B/C/B/ D/B/E/B/ A/C/D/E/ F/G/A/4G/4F/4G/4 | ABAG z dcB | ABcd G2 z c | cd/c/ BB Bc/B/ Af | %78
 fg/f/ _ee ef/e/ db | bc'/b/ aa ab/a/ gg | ga/g/ f/a/g/f/ e/d/c/d/ e/d/e/c/ | %81
 d/e/f/a/ g/a/b/d/ c/d/e/g/ f/g/a/c/ | B/c/d/f/ e/f/g/B/ Ac f>f | %83
 f/b/a/g/ a/4g/4a/4g/4a/4g/4f/ f2 z F | E/F/G/B,/ A,/B,/C/F/ E/F/G/B,/ A,/B,/C/E/ | %85
 F/G/_A/C/ =B,/C/D/E/ F/G/A/C/ B,/C/D/F/ | E/F/G/C/ B,/C/_D/[I:staff +1]_A,/[I:staff -1] z4 | %87
 z4 z A/B/4c/4 AA/4G/4F/ | F/C/D/E/ F/G/A/F/ B/c/B/A/ G/c/B/c/ | %89
 AF f/4e/4ff/ f>g f/4e/4f/4e/4f/4e/4f/ | f/g/f/e/ d/e/f/a/ =B/c/d/g/ c/d/e/g/ | %91
 A/=B/c/f/ B/c/d/f/ G/A/B/e/ A/B/c/e/ | FA d>d d/G/A/=B/ c/d/e/c/ | f/g/f/e/ d/g/f/g/ ec c'>c' | %94
 c'-c'/4=b/4c'/4a/4 c'/4b/4c'/4b/4c'/4b/4b/ be a>a | a3/2g/4f/4 g>g gc f/4e/4ff/ | %96
 f/a/g/f/ e/f/g/e/ f/g/f/e/ d/g/f/g/ | e/c/d/e/ f/g/a/f/ b/c'/b/a/ g/c'/b/c'/ | %98
 a/b/a/g/ f/e/d/c/ =B/G/A/B/ c/d/e/f/ | g/a/4g/4f/4g/4a/ e/4d/4e/4d/4e/4d/4c/ c/G/A/=B/ c/d/e/c/ | %100
 f/g/f/e/ d/g/f/g/ ec f/4e/4ff/ | f>g _e>e e/F/G/A/ B/c/d/B/ | _e/f/e/d/ c/f/e/f/ dB [gb]>[gb] | %103
 [gb]>[gc'] [fa]>[fa] [fa]d g>g | g>a f>f f>g f/4e/4f/4e/4f/4e/4f/ | %105
 fD/E/ F/G/A/F/ B/c/B/A/ G/c/B/c/ | AC F>F F2 E>E | F2 z2 z4 |] %108
V:2
 z8 | z/ C,/D,/E,/ F,/G,/A,/F,/ B,/C/B,/A,/ G,/C/B,/C/ | A,F, F/4E/4FF/ F>G F/4E/4F/4E/4F/4E/4E/ | %3
 EA, D>D D>E D/4C/4D/4C/4D/4C/4C/ | C/E/D/C/ =B,/A,/G,/F,/ E,2- E,/D,/C,/=B,,/ | %5
 A,,/G,,/A,,/F,,/ G,,G, C,/G,/A,/=B,/ C/D/E/C/ | F/G/F/E/ D/G/F/G/ C/D/E/G/ F,/G,/A,/C/ | %7
 =B,/C/D/F/ E,/F,/G,/B,/ A,/B,/C/E/ D,/E,/F,/A,/ | G,C, C>C C>D C/4B,/4C/4B,/4C/4B,/4B,/ | %9
 B,C/B,/ A,/G,/F,/E,/ D,/C,/D,/B,,/ C,C,, | F,,2 z F, G,/C/=B,/A,/ G,/F,/E,/D,/ | %11
 C,F,G,G,, C,,2 C>C | C>D C/4B,/4C/4B,/4C/4B,/4B,/ B,/C,/D,/E,/ F,/G,/A,/F,/ | %13
 B,/C/B,/A,/ G,/C/B,/C/ A,F, B,>B, | B,>C B,/4A,/4B,/4A,/4B,/4A,/4B,/ B,/D,/E,/F,/ G,/A,/B,/G,/ | %15
 C/C,/D,/E,/ F,/G,/A,/F,/ B,/A,/G,/F,/ E,/D,/C,/B,,/ | %16
 A,,/B,,/C,/E,/ D,/E,/F,/A,/ G,/G,,/A,,/B,,/ C,/A,,/B,,/C,/ | D,,2 z D, G,/A,/G,/F,/ E,/C,/D,/E,/ | %18
 F,/G,/F,/E,/ D,/C,/B,,/A,,/ B,,G,, C,C,, | F,,F,/E,/ F,G, A,B,A,G, | z DCB, A,B,CD | %21
 G,2 z/ C/=B,/C/ G,/C/A,/C/ G,/C/F,/C/ | E,/C/F,/C/ E,/C/D,/C/ C,/C/D,/C/ E,/C/F,/C/ | %23
 G,G,, z G, D, z z2 | z/ G,/=B,/D/ B,/G,/B,/D/ z/ C,/E,/G,/ E,/C,/E,/G,/ | %25
 A,/F,,/A,,/C,/ A,,/F,,/A,,/C,/ =B,,/G,,/B,,/D,/ B,,/G,,/B,,/D,/ | E,,E,/F,/ G,G,, C,,2 C,>C, | %27
 C,>D, C,/4=B,,/4C,/4B,,/4C,/4B,,/4C,/ C,/G,,/A,,/B,,/ C,/D,/E,/C,/ | %28
 F,/G,/F,/E,/ D,/G,/F,/G,/ E,/G,/A,/=B,/ C/D/E/C/ | %29
[I:staff -1] F/G/F/E/ D/E/F/D/ G/A/G/F/ E/F/G/E/ | AGAD G2- G/F/E/D/ | %31
 ^C/A,/=B,/C/ D/E/F/D/ G/A/G/F/ E/A/G/A/ | F2[I:staff +1] z F,- F,/A,/G,/F,/ E,/D,/C,/=B,,/ | %33
 A,,/G,,/A,,/F,,/ G,,2 C,,C,/=B,,/ C,D, | E,F,E,D, z A,G,F, | E,_G,=G,A, D,2 z/ G,/^F,/G,/ | %36
 D,/G,/_E,/G,/ D,/G,/C,/G,/ B,,/G,/C,/G,/ B,,/G,/A,,/G,/ | %37
 G,,/G,/A,,/G,/ =B,,/G,/^C,/G,/ F,/G,/F,/E,/ D,/E,/F,/D,/ | G,/A,/G,/F,/ E,/A,/G,/A,/ F,2 z B, | %39
 E,2 z ^C A,2 z D | D2 z E C2 z F | =B,2 EE, A,2- A,/G,/F,/E,/ | %42
 D,/B,,/C,/D,/ _E,/F,/G,/E,/ ^C,/D,/C,/=B,,/ A,,/D,/=C,/D,/ | %43
 G,, z z2 z/ B,,/A,,/G,,/ F,,/E,,/D,,/C,,/ | D,,G,, A,,A,, D,,2 z D | =B,G, z G, E,C, z C | %46
 A,F, z F, D,=B,, z =B, | ^G,E, z E, C,A,, z ^C, | D,D,, z F, ^G,,E, z A, | =B,A,B,^G, A,=G,F,C, | %50
 D,=B,,E,E,, A,,/E,/^F,/^G,/ A,/=B,/C/A,/ | D/E/D/C/ =B,/E/D/E/ CE,A,A, | %52
 A,^G,/A,/ =B,B, B,A,/B,/ CC- | C/C/=B,/A,/ ^G,/^F,/E,/G,/ C,/=F,/E,/D,/ C,/=B,,/A,,/C,/ | %54
 ^F,,/E,/D,/C,/ =B,,/A,,/^G,,/B,,/ C,,C,/D,/ E,E,, | A,,A,A,G, F, z z2 | %56
 z/ B,/D/F/ D/B,/D/F/ z/ E,/G,/B,/ G,/E,/G,/B,/ | %57
 ^C/A,,/^C,/E,/ C,/A,,/C,/E,/ F,/D,,/F,,/A,,/ F,,/D,,/F,,/A,,/ | B,,2 z B, ^C,D,A,A,, | %59
 D,,2 z D, D,E,/D,/ C,C, | A,2 z G, E,2 z ^F, | B,2 z B, [A,C] z z ^F, | %62
 G,/F,/_E,/D,/ C,/F,/E,/F,/ B,,/C,/D,/E,/ A,,/D,/C,/D,/ | G,,B,,C,A,, B,,C,D,D,, | %64
 G,,/D,/E,/F,/ G,/A,/B,/G,/ C/D/C/B,/ A,/D/C/D/ | B,/G,/A,/B,/ C/D/_E/C/ F/A,/B,/C/ D/E/F/D/ | %66
 G/B,/C/D/ _E/F/G/=E/ F/G/F/_E/ D/C/B,/D/ | G,/F/_E/D/ C/B,/A,/C/ F,/E/D/C/ B,/A,/G,/B,/ | %68
 _E,/F,/E,/D,/ C,/B,,/A,,/C,/ F,,B,,F,F,, | B,,/F,/G,/A,/ B,/C/D/B,/ _E/F/E/D/ C/F/E/F/ | %70
 D/_E/D/C/ B,/E/D/E/ C/D/C/B,/ A,/D/C/D/ | B,/C/B,/A,/ G,/C/B,/C/ A,/B,/A,/G,/ F,/B,/A,/B,/ | %72
 G,F,G,A, B,CDB,, | _E,D,C,E, D,C, z C, | D,E,F,G, C,2 z/ F,/E,/F,/ | %75
 C,/F,/D,/F,/ C,/F,/B,,/F,/ A,,/F,/B,,/F,/ A,,/F,/G,,/F,/ | %76
 F,,/F,/G,,/F,/ A,,/F,/B,,/F,/ C,/G,,/A,,/=B,,/ C,/D,/E,/C,/ | %77
 F,/G,/F,/E,/ D,/G,/F,/G,/ E,/C,/D,/E,/ F,/G,/A,/F,/ | %78
 B,/C/B,/A,/ G,/C/B,/C/ A,/F,/G,/A,/ B,/C/D/B,/ | _E/F/E/D/ C/F/E/F/ D/E/D/C/ B,/A,/G,/F,/ | %80
 E,/D,/C,/B,,/ A,,/G,,/A,,/F,,/ C,,G,CC | CD/C/ B,B, B,C/B,/ A,A, | %82
 A,B,/A,/ G,/F,/E,/G,/ F,/B,/A,/G,/ F,/E,/D,/F,/ | %83
 B,,/D,/C,/B,,/ C,C,, F,,/C,,/D,,/E,,/ F,,/G,,/A,,/F,,/ | C,C,, z C, C,C,, z C, | %85
 C,C,, z C, C,C,, z C, | C,C,, z2 G,/_A,/B,/F,/ E,/F,/G,/C,/ | %87
 B,,/C,/_D,/_A,,/ G,,/A,,/B,,/F,,/ E,,F,,C,C,, | F,,/ z/ z z2 z4 | %89
 z/ C,/D,/E,/ F,/G,/A,/F,/ B,/C/B,/A,/ G,/C/B,/C/ | A,F, F/4E/4FF/ F>G F/4E/4F/4E/4F/4E/4E/ | %91
 EA, D>D D>E D/4C/4D/4C/4D/4C/4C/ | C/E/D/C/ =B,/A,/G,/F,/ E,2- E,/D,/C,/=B,,/ | %93
 A,,/G,,/A,,/F,,/ G,,G, C,/G,/A,/=B,/ C/D/E/C/ | F/G/F/E/ D/G/F/G/ C/D/E/G/ F,/G,/A,/C/ | %95
 =B,/C/D/F/ E,/F,/G,/B,/ A,/B,/C/E/ D,/E,/F,/A,/ | G,C, C>C C>D C/4B,/4C/4B,/4C/4B,/4B,/ | %97
 B,C/B,/ A,/G,/F,/E,/ D,/C,/D,/B,,/ C,C,, | F,,2 z F, G,/C/=B,/A,/ G,/F,/E,/D,/ | %99
 C,F,G,G,, C,,2 C>C | C>D C/4B,/4C/4B,/4C/4B,/4B,/ B,/C,/D,/E,/ F,/G,/A,/F,/ | %101
 B,/C/B,/A,/ G,/C/B,/C/ A,F, B,>B, | B,>C B,/4A,/4B,/4A,/4B,/4A,/4B,/ B,/D,/E,/F,/ G,/A,/B,/G,/ | %103
 C/C,/D,/E,/ F,/G,/A,/F,/ B,/A,/G,/F,/ E,/D,/C,/B,,/ | %104
 A,,/B,,/C,/E,/ D,/E,/F,/A,/ G,/G,,/A,,/B,,/ C,/A,,/B,,/C,/ | D,,2 z D, G,/A,/G,/F,/ E,/C,/D,/E,/ | %106
 F,/G,/F,/E,/ D,/C,/B,,/A,,/ B,,G,, C,C,, | F,,2 z2 z4 |] %108
V:3
 x8 | x8 | x8 | x8 | x8 | x8 | x8 | x8 | x8 | x8 | x8 | x8 | x8 | x8 | z6 d>d | e>e e>e d z d>d | %16
 c>c c>c B>B B>B | A z z2 z4 | z2 z z/ C/ D/C/B,/A,/ G,/C/B,/C/ | A,2 z2 z4 | x8 | c/ z/ z z2 z4 | %22
 c4- cc=BA | =B/ z/ z z2 z/ D/F/A/ F/D/F/A/ | =Bddd [Gd][Gd][Gc][Gc] | %25
 [Fc][Fc][Fc][Fc] [FG][FG][FG][FG] | [FG][EG][DG][DG] [EG]/ z/ z z2 | z6 z E | D2 z _B G2 z c | %29
 A2 z A =B2 z B | c4- c/c/=B/A/ B>B | A2 A>A =B2 c>c | A2 z2 z2 z3/2 E/ | E>F D>E E2 z2 | x8 | %35
 z4 G/ z/ z z2 | z4 G4- | GGFE DD/E/ F>F | E2 z2 z A,DD | D^C/D/ EE ED/E/ FF | FE/F/ GG GF/G/ AA | %41
 A/c/=B/A/ ^G/A/^F/G/ A4- | A>A G2- G>G F>F- | %43
 F/E/D/C/[I:staff +1] B,/A,/G,/F,/ E,2[I:staff -1] D z | D2 z2 z4 | x8 | x8 | x8 | x8 | x8 | %50
 z4 C2 z2 | x8 | x8 | D2 z ^G G z z A | A^G =BB BA G2 | A/ z/ z z2 z/ F/A/c/ A/F/A/c/ | %56
 dfff [Gf][Be][Be][Be] | [Ae][Ae][Ae][Ae] [Ae][Ad][Ad][Ad] | [Gd]/ z/ z z2 z [FA][EA][EGA] | %59
 [FA]/ z/ z z[I:staff +1] A, _B,2[I:staff -1] z[I:staff +1] E, | x8 | x8 | %62
 G,/[I:staff -1] A/G/F/ _E2 D2 C2 | B, z =E/B,/C/^F,/ z4 | GB/A/ BB A2 z A | G2 z c A2 z c | %66
 B2 z B A2 z [DF] | [DG] z z [_EG] [EA] z z [FB] | [GB] z z [Gc] [Ac]B A2 | B/ z/ z z2 z4 | x8 | %71
 x8 | x8 | x8 | z4 F/ z/ z z2 | z4 F4- | F4- FE/D/ E[EG] | [DA]2 z [DG] [CG]2 z [Ac] | %78
 [Gd]2 z [Gc] [Fc]2 z [df] | [cg]2 z [cf] [Bf]2 z [Bd] | [Bc] z z2 z4 | x8 | x8 | x8 | x8 | x8 | %86
 x8 | z4 z F FE | F/ z/ z z2 z4 | x8 | x8 | x8 | x8 | x8 | x8 | x8 | x8 | x8 | x8 | x8 | x8 | x8 | %102
 z6 d>d | e>e e>e d z d>d | c>c c>c B>B B>B | A z z2 z4 | z2 z z/ C/ D/C/B,/A,/ G,/C/B,/C/ | %107
 A,2 z2 z4 |] %108
V:4
 x8 | x8 | x8 | x8 | x8 | x8 | x8 | x8 | x8 | x8 | x8 | x8 | x8 | x8 | x8 | x8 | x8 | x8 | %18
 z2 z z/ A,/ G, z z2 | x8 | F,4- F,F,E,D, | C,2 z2 z4 | x8 | =B, z z2 z4 | x8 | x8 | x8 | x8 | x8 | %29
 x8 | x8 | x8 | x8 | z2 z G, z4 | z4 C,4- | C,C,B,,A,, G,,2 z2 | x8 | x8 | x8 | z3 A, D,2 z D | %40
 G,2 z C F,2 z2 | x8 | x8 | z6 A,>A, | A,=B, ^C2 z4 | x8 | x8 | x8 | x8 | x8 | x8 | x8 | x8 | x8 | %54
 x8 | x8 | x8 | x8 | x8 | x8 | C,D,/C,/ B,,B,, B,,C,/B,,/ A,,A,, | %61
 A,,B,,/A,,/ G,,G, G,A,/G,/ ^F,D, | x8 | x8 | x8 | x8 | x8 | x8 | x8 | x8 | x8 | x8 | x8 | %73
 z6 B,,2- | B,,B,,A,,G,, F,,2 z2 | x8 | x8 | x8 | x8 | x8 | x8 | x8 | x8 | x8 | x8 | x8 | x8 | x8 | %88
 x8 | x8 | x8 | x8 | x8 | x8 | x8 | x8 | x8 | x8 | x8 | x8 | x8 | x8 | x8 | x8 | x8 | x8 | %106
 z2 z z/ A,/ G, z z2 | x8 |] %108
V:5
 x8 | x8 | x8 | x8 | x8 | x8 | x8 | x8 | x8 | x8 | x8 | x8 | x8 | x8 | x8 | x8 | x8 | x8 | x8 | %19
 x8 | x8 | x8 | x8 | x8 | x8 | x8 | x8 | x8 | x8 | x8 | x8 | x8 | x8 | x8 | x8 | x8 | x8 | x8 | %38
 x8 | x8 | x8 | x8 | x8 | x8 | x8 | x8 | x8 | x8 | x8 | x8 | x8 | x8 | x8 | z3 D E z z E | %54
 D2 z F E z z2 | x8 | x8 | x8 | x8 | x8 | x8 | x8 | x8 | z3 C z4 | x8 | x8 | x8 | x8 | x8 | x8 | %70
 x8 | x8 | x8 | x8 | x8 | x8 | x8 | x8 | x8 | x8 | x8 | x8 | x8 | x8 | x8 | x8 | x8 | x8 | x8 | %89
 x8 | x8 | x8 | x8 | x8 | x8 | x8 | x8 | x8 | x8 | x8 | x8 | x8 | x8 | x8 | x8 | x8 | x8 | x8 |] %108

